!!!OTL: 712. Falsche Schwuere.
!!!ARE: Europa, Mitteleuropa, Deutschland, Brandenburg; Schlesien
!!!SCT: E0712
!!!TXL: @@DE
!!!YEM: Copyright 1995, estate of Helmut Schaffrath.
**kern	**text
*ICvox	*
*M6/8	*
*k[b-]	*
*F:	*
=1	=1
!LO:TX:a:t=Mäßig bewegt.	!
!LO:TX:a:t=Aus dem Brandenburgiſchen und Schleſten vor 1840.	!
{4f	Lin-
8a	-chen
4cc	ging
8ff	ein-
=2	=2
8ffL	-mal
8eeJ	.
8dd	ſpa-
8ddL	-ʒie-
8ccJ	.
8cc}	-ren
=3	=3
{8gL	in
8b-J	.
8dd	den
8ccL	Myr-
8b-J	.
8g	-then-
=4	=4
4.f	-hain.
4r	.
8r}	.
=5	=5
{8ccL	bald
8ggJ	.
8gg	fand
8ggL	ſich
8eeJ	.
8cc	ʒu
=6	=6
(8ccL	ihr
8ffJ)	.
8ffL	im
8ffJ	Grü-
8cc	.
8a}	-nen
=7	=7
{8gL	dort
8b-J	.
8dd	ein
8ccL	Jüng-
8b-J	.
8g	-ling
=8	=8
4.f	ein.
4r	.
8r}	.
==	==
!!!AGN: Liebes - Lied, Leid, Klage
!!!ONB: ESAC (Essen Associative Code) Database: ERK2
!!!AMT: compound duple
!!!AIN: vox
!!!EED: Helmut Schaffrath
!!!EEV: 1.0
!!!GTL: Liebeslieder [Neuere (aus dem 18. bis 19. Jahrh.) - Liebesleid] 678-740
!!!URL-scan: https://rosdok.uni-rostock.de/mcrviewer/recordIdentifier/rosdok_ppn745177662/iview2/phys_0518.iview2?x=193.8995864193107&y=1625.0473416743334&scale=0.7029437510502773&rotation=0&layout=singlePageLayout
!!!ENC: Anna Maria Matuszewska
!!!EEV: 2024/12/16
*-	*-
